X:9875
T:Lord McDonalds Reel
R:Reel
S:Tony Gordon, manuscript
M:4/4
L:1/8
Q:1/4=200
K:G
G|:DGBG dG (3BBG|c2Bc AGEG|DGG2 AGGE|DEDC B,G,G,2|
DGBG dGBG|c2Bc AGEG|BcBA GAGE|DEGA BGG2:|
|:Bd (3ddd dBGB|defg aged|Bd (3ddd dBGB|ABcA BGG2|
Bd (3ddd dBGB|defg aged|Bd (3ddd g3e|dBAc BGGB:|
|:dg (3bag agbg|dgbg ageg|dg (3bag agbg|dedc BGGB|
dg (3bag agbg|dgbg ageg|(3bag  (3agf gfec|dega bgg2:|


